X: 270
T: Huolang duishi
%%abc-version 2.0
%%abcx-abcm2ps-target-version 5.9.1 (29 Sep 2008)
%%abc-creator hum2abc beta
%%abcx-conversion-date 2013/10/02 07:52:29
%%abc-edited-by Helmut Schaffrath
%%humdrum-veritas 430905436
%%humdrum-veritas-data 3461108121
%%continueall 1
%%barnumbers 0
L: 1/16
M: 2/4
K: C
e2 e B e2 e B [I:setbarnb 1]| 
e d e e c2 B A | 
B2 e2 e e2 B | 
A2 c GE4 | 
e2 e e c2 B A | 
G2 A GE4 | 
e2 e B e2 e B | 
A G A G E2 E E | 
e2 e B e2 e B | 
A G A cE4 | 
e2 e B e2 e B | 
e2 e e c2 B A | 
A2 e2 e2 e B | 
A2 c GE4 | 
e2 e B e2 e B | 
e2 e e c2 B A | 
A2 e2 e2 e B | 
A2 c G E2 E E | 
A2 B A G2 G E | 
A2 B A G2 G E | 
e2 e e A2 B A | 
G8 |]  



